; generated by Slic3r 1.0.0RC2 on 2014-01-21 at 21:02:42

; layer_height = 0.3
; perimeters = 3
; top_solid_layers = 3
; bottom_solid_layers = 3
; fill_density = 0.4
; perimeter_speed = 100
; infill_speed = 100
; travel_speed = 140
; nozzle_diameter = 0.5
; filament_diameter = 2.77
; extrusion_multiplier = 1.00
; perimeters extrusion width = 0.50mm
; infill extrusion width = 0.70mm
; solid infill extrusion width = 0.70mm
; top infill extrusion width = 0.70mm

G21
M107
M140 S60
M104 S165
G28 X0
G28 Y0
G1 Y20 F2400.000
G28 Z0
G28 Y0
M190 S60
M109 S165
G92 E0
G1 F150 E15.0
M42 P8 S255
G90
G92 E0
M82
G1 F900.000 E-1.20000
G92 E0
G1 Z0.300 F8400.000
G1 X48.947 Y75.950 F8400.000
G1 E1.20000 F900.000
G1 X140.447 Y75.950 E3.47752 F3000.000
G1 X140.447 Y124.050 E4.67478
G1 X48.947 Y124.050 E6.95230
G1 X48.947 Y76.025 E8.14769
G1 X48.447 Y75.450 F8400.000
G1 X140.947 Y75.450 E10.45011 F3000.000
G1 X140.947 Y124.550 E11.67225
G1 X48.447 Y124.550 E13.97467
G1 X48.447 Y75.525 E15.19495
G1 X47.947 Y74.950 F8400.000
G1 X141.447 Y74.950 E17.52225 F3000.000
G1 X141.447 Y125.050 E18.76929
G1 X47.947 Y125.050 E21.09660
G1 X47.947 Y75.025 E22.34177
G1 X48.380 Y75.200 F8400.000
G1 F900.000 E21.14177
G92 E0
G1 X49.376 Y123.686 F8400.000
G1 E1.20000 F900.000
G1 X49.311 Y123.620 E1.20302 F3000.000
G1 X49.311 Y122.694 E1.23322
G1 X50.303 Y123.686 E1.27895
G1 X51.229 Y123.686 E1.30915
G1 X49.311 Y121.768 E1.39759
G1 X49.311 Y120.841 E1.42779
G1 X52.155 Y123.686 E1.55894
G1 X53.081 Y123.686 E1.58914
G1 X49.311 Y119.915 E1.76300
G1 X49.311 Y118.989 E1.79320
G1 X54.008 Y123.686 E2.00977
G1 X54.934 Y123.686 E2.03997
G1 X49.311 Y118.063 E2.29925
G1 X49.311 Y117.136 E2.32945
G1 X55.860 Y123.686 E2.63144
G1 X56.786 Y123.686 E2.66164
G1 X49.311 Y116.210 E3.00634
G1 X49.311 Y115.284 E3.03654
G1 X57.713 Y123.686 E3.42395
G1 X58.639 Y123.686 E3.45415
G1 X49.311 Y114.358 E3.88426
G1 X49.311 Y113.431 E3.91446
G1 X59.565 Y123.686 E4.38729
G1 X60.491 Y123.686 E4.41749
G1 X49.311 Y112.505 E4.93303
G1 X49.311 Y111.579 E4.96323
G1 X61.418 Y123.686 E5.52148
G1 X62.344 Y123.686 E5.55168
G1 X49.311 Y110.653 E6.15264
G1 X49.311 Y109.726 E6.18284
G1 X63.270 Y123.686 E6.82650
G1 X64.196 Y123.686 E6.85670
G1 X49.311 Y108.800 E7.54308
G1 X49.311 Y107.874 E7.57328
G1 X65.123 Y123.686 E8.30237
G1 X66.049 Y123.686 E8.33257
G1 X49.311 Y106.948 E9.10436
G1 X49.311 Y106.021 E9.13456
G1 X66.975 Y123.686 E9.94907
G1 X67.901 Y123.686 E9.97927
G1 X49.311 Y105.095 E10.83649
G1 X49.311 Y104.169 E10.86669
G1 X68.828 Y123.686 E11.76661
G1 X69.754 Y123.686 E11.79681
G1 X49.311 Y103.243 E12.73945
G1 X49.311 Y102.316 E12.76965
G1 X70.680 Y123.686 E13.75499
G1 X71.606 Y123.686 E13.78520
G1 X49.311 Y101.390 E14.81325
G1 X49.311 Y100.464 E14.84345
G1 X72.533 Y123.686 E15.91422
G1 X73.459 Y123.686 E15.94442
G1 X49.311 Y99.538 E17.05789
G1 X49.311 Y98.611 E17.08809
G1 X74.385 Y123.686 E18.24428
G1 X75.311 Y123.686 E18.27448
G1 X49.311 Y97.685 E19.47337
G1 X49.311 Y96.759 E19.50357
G1 X76.238 Y123.686 E20.74518
G1 X77.164 Y123.686 E20.77538
G1 X49.311 Y95.833 E22.05969
G1 X49.311 Y94.906 E22.08989
G1 X78.090 Y123.686 E23.41691
G1 X79.016 Y123.686 E23.44711
G1 X49.311 Y93.980 E24.81685
G1 X49.311 Y93.054 E24.84705
G1 X79.943 Y123.686 E26.25949
G1 X80.869 Y123.686 E26.28969
G1 X49.311 Y92.128 E27.74485
G1 X49.311 Y91.201 E27.77505
G1 X81.795 Y123.686 E29.27291
G1 X82.721 Y123.686 E29.30311
G1 X49.311 Y90.275 E30.84368
G1 X49.311 Y89.349 E30.87388
G1 X83.648 Y123.686 E32.45716
G1 X84.574 Y123.686 E32.48736
G1 X49.311 Y88.423 E34.11336
G1 X49.311 Y87.496 E34.14356
G1 X85.500 Y123.686 E35.81226
G1 X86.426 Y123.686 E35.84246
G1 X49.311 Y86.570 E37.55387
G1 X49.311 Y85.644 E37.58407
G1 X87.353 Y123.686 E39.33819
G1 X88.279 Y123.686 E39.36839
G1 X49.311 Y84.718 E41.16523
G1 X49.311 Y83.791 E41.19543
G1 X89.205 Y123.686 E43.03497
G1 X90.131 Y123.686 E43.06517
G1 X49.311 Y82.865 E44.94742
G1 X49.311 Y81.939 E44.97762
G1 X91.058 Y123.686 E46.90258
G1 X91.984 Y123.686 E46.93278
G1 X49.311 Y81.013 E48.90045
G1 X49.311 Y80.086 E48.93065
G1 X92.910 Y123.686 E50.94103
G1 X93.836 Y123.686 E50.97123
G1 X49.311 Y79.160 E53.02432
G1 X49.311 Y78.234 E53.05452
G1 X94.763 Y123.686 E55.15032
G1 X95.689 Y123.686 E55.18052
G1 X49.311 Y77.308 E57.31903
G1 X49.311 Y76.381 E57.34923
G1 X96.615 Y123.686 E59.53045
G1 X97.541 Y123.686 E59.56065
G1 X50.170 Y76.314 E61.74496
G1 X51.097 Y76.314 E61.77516
G1 X98.468 Y123.686 E63.95946
G1 X99.394 Y123.686 E63.98966
G1 X52.023 Y76.314 E66.17396
G1 X52.949 Y76.314 E66.20416
G1 X100.320 Y123.686 E68.38846
G1 X101.246 Y123.686 E68.41866
G1 X53.875 Y76.314 E70.60296
G1 X54.802 Y76.314 E70.63316
G1 X102.173 Y123.686 E72.81746
G1 X103.099 Y123.686 E72.84766
G1 X55.728 Y76.314 E75.03196
G1 X56.654 Y76.314 E75.06216
G1 X104.025 Y123.686 E77.24646
G1 X104.951 Y123.686 E77.27666
G1 X57.580 Y76.314 E79.46096
G1 X58.507 Y76.314 E79.49116
G1 X105.878 Y123.686 E81.67546
G1 X106.804 Y123.686 E81.70566
G1 X59.433 Y76.314 E83.88996
G1 X60.359 Y76.314 E83.92016
G1 X107.730 Y123.686 E86.10446
G1 X108.656 Y123.686 E86.13466
G1 X61.285 Y76.314 E88.31896
G1 X62.212 Y76.314 E88.34916
G1 X109.583 Y123.686 E90.53346
G1 X110.509 Y123.686 E90.56366
G1 X63.138 Y76.314 E92.74796
G1 X64.064 Y76.314 E92.77816
G1 X111.435 Y123.686 E94.96246
G1 X112.361 Y123.686 E94.99266
G1 X64.990 Y76.314 E97.17696
G1 X65.917 Y76.314 E97.20716
G1 X113.288 Y123.686 E99.39146
G1 X114.214 Y123.686 E99.42167
G1 X66.843 Y76.314 E101.60597
G1 X67.769 Y76.314 E101.63617
G1 X115.140 Y123.686 E103.82047
G1 X116.066 Y123.686 E103.85067
G1 X68.695 Y76.314 E106.03497
G1 X69.622 Y76.314 E106.06517
G1 X116.993 Y123.686 E108.24947
G1 X117.919 Y123.686 E108.27967
G1 X70.548 Y76.314 E110.46397
G1 X71.474 Y76.314 E110.49417
G1 X118.845 Y123.686 E112.67847
G1 X119.771 Y123.686 E112.70867
G1 X72.400 Y76.314 E114.89297
G1 X73.327 Y76.314 E114.92317
G1 X120.698 Y123.686 E117.10747
G1 X121.624 Y123.686 E117.13767
G1 X74.253 Y76.314 E119.32197
G1 X75.179 Y76.314 E119.35217
G1 X122.550 Y123.686 E121.53647
G1 X123.476 Y123.686 E121.56667
G1 X76.105 Y76.314 E123.75097
G1 X77.032 Y76.314 E123.78117
G1 X124.403 Y123.686 E125.96547
G1 X125.329 Y123.686 E125.99567
G1 X77.958 Y76.314 E128.17997
G1 X78.884 Y76.314 E128.21017
G1 X126.255 Y123.686 E130.39447
G1 X127.181 Y123.686 E130.42467
G1 X79.810 Y76.314 E132.60897
G1 X80.737 Y76.314 E132.63917
G1 X128.108 Y123.686 E134.82347
G1 X129.034 Y123.686 E134.85367
G1 X81.663 Y76.314 E137.03797
G1 X82.589 Y76.314 E137.06817
G1 X129.960 Y123.686 E139.25247
G1 X130.886 Y123.686 E139.28268
G1 X83.515 Y76.314 E141.46698
G1 X84.442 Y76.314 E141.49718
G1 X131.813 Y123.686 E143.68148
G1 X132.739 Y123.686 E143.71168
G1 X85.368 Y76.314 E145.89598
G1 X86.294 Y76.314 E145.92618
G1 X133.665 Y123.686 E148.11048
G1 X134.591 Y123.686 E148.14068
G1 X87.220 Y76.314 E150.32498
G1 X88.147 Y76.314 E150.35518
G1 X135.518 Y123.686 E152.53948
G1 X136.444 Y123.686 E152.56968
G1 X89.073 Y76.314 E154.75398
G1 X89.999 Y76.314 E154.78418
G1 X137.370 Y123.686 E156.96848
G1 X138.296 Y123.686 E156.99868
G1 X90.925 Y76.314 E159.18298
G1 X91.852 Y76.314 E159.21318
G1 X139.223 Y123.686 E161.39748
G1 X140.082 Y123.619 E161.42558
G1 X92.778 Y76.314 E163.60680
G1 X93.704 Y76.314 E163.63700
G1 X140.082 Y122.692 E165.77550
G1 X140.082 Y121.766 E165.80571
G1 X94.630 Y76.314 E167.90150
G1 X95.557 Y76.314 E167.93170
G1 X140.082 Y120.840 E169.98479
G1 X140.082 Y119.914 E170.01499
G1 X96.483 Y76.314 E172.02536
G1 X97.409 Y76.314 E172.05556
G1 X140.082 Y118.987 E174.02323
G1 X140.082 Y118.061 E174.05343
G1 X98.335 Y76.314 E175.97839
G1 X99.262 Y76.314 E176.00859
G1 X140.082 Y117.135 E177.89083
G1 X140.082 Y116.209 E177.92103
G1 X100.188 Y76.314 E179.76057
G1 X101.114 Y76.314 E179.79077
G1 X140.082 Y115.282 E181.58760
G1 X140.082 Y114.356 E181.61780
G1 X102.040 Y76.314 E183.37191
G1 X102.967 Y76.314 E183.40212
G1 X140.082 Y113.430 E185.11352
G1 X140.082 Y112.504 E185.14372
G1 X103.893 Y76.314 E186.81242
G1 X104.819 Y76.314 E186.84262
G1 X140.082 Y111.577 E188.46861
G1 X140.082 Y110.651 E188.49881
G1 X105.745 Y76.314 E190.08209
G1 X106.672 Y76.314 E190.11229
G1 X140.082 Y109.725 E191.65286
G1 X140.082 Y108.799 E191.68306
G1 X107.598 Y76.314 E193.18091
G1 X108.524 Y76.314 E193.21111
G1 X140.082 Y107.872 E194.66626
G1 X140.082 Y106.946 E194.69646
G1 X109.450 Y76.314 E196.10890
G1 X110.377 Y76.314 E196.13910
G1 X140.082 Y106.020 E197.50883
G1 X140.082 Y105.094 E197.53903
G1 X111.303 Y76.314 E198.86605
G1 X112.229 Y76.314 E198.89625
G1 X140.082 Y104.167 E200.18056
G1 X140.082 Y103.241 E200.21076
G1 X113.155 Y76.314 E201.45236
G1 X114.082 Y76.314 E201.48256
G1 X140.082 Y102.315 E202.68145
G1 X140.082 Y101.389 E202.71165
G1 X115.008 Y76.314 E203.86783
G1 X115.934 Y76.314 E203.89803
G1 X140.082 Y100.462 E205.01150
G1 X140.082 Y99.536 E205.04170
G1 X116.860 Y76.314 E206.11246
G1 X117.787 Y76.314 E206.14266
G1 X140.082 Y98.610 E207.17071
G1 X140.082 Y97.684 E207.20091
G1 X118.713 Y76.314 E208.18625
G1 X119.639 Y76.314 E208.21645
G1 X140.082 Y96.757 E209.15909
G1 X140.082 Y95.831 E209.18929
G1 X120.565 Y76.314 E210.08921
G1 X121.492 Y76.314 E210.11941
G1 X140.082 Y94.905 E210.97662
G1 X140.082 Y93.979 E211.00682
G1 X122.418 Y76.314 E211.82132
G1 X123.344 Y76.314 E211.85152
G1 X140.082 Y93.052 E212.62331
G1 X140.082 Y92.126 E212.65351
G1 X124.270 Y76.314 E213.38260
G1 X125.197 Y76.314 E213.41280
G1 X140.082 Y91.200 E214.09917
G1 X140.082 Y90.274 E214.12937
G1 X126.123 Y76.314 E214.77303
G1 X127.049 Y76.314 E214.80323
G1 X140.082 Y89.347 E215.40418
G1 X140.082 Y88.421 E215.43438
G1 X127.975 Y76.314 E215.99263
G1 X128.902 Y76.314 E216.02283
G1 X140.082 Y87.495 E216.53836
G1 X140.082 Y86.569 E216.56856
G1 X129.828 Y76.314 E217.04138
G1 X130.754 Y76.314 E217.07158
G1 X140.082 Y85.642 E217.50170
G1 X140.082 Y84.716 E217.53190
G1 X131.680 Y76.314 E217.91930
G1 X132.607 Y76.314 E217.94950
G1 X140.082 Y83.790 E218.29420
G1 X140.082 Y82.864 E218.32440
G1 X133.533 Y76.314 E218.62638
G1 X134.459 Y76.314 E218.65658
G1 X140.082 Y81.937 E218.91585
G1 X140.082 Y81.011 E218.94605
G1 X135.385 Y76.314 E219.16262
G1 X136.312 Y76.314 E219.19282
G1 X140.082 Y80.085 E219.36667
G1 X140.082 Y79.159 E219.39687
G1 X137.238 Y76.314 E219.52802
G1 X138.164 Y76.314 E219.55822
G1 X140.082 Y78.232 E219.64665
G1 X140.082 Y77.306 E219.67686
G1 X139.090 Y76.314 E219.72258
G1 X140.017 Y76.314 E219.75278
G1 X140.082 Y76.380 E219.75580
G1 F900.000 E218.55580
G92 E0
G1 Z0.600 F8400.000
G1 X140.447 Y75.950 F8400.000
G1 E1.20000 F900.000
G1 X140.447 Y124.050 E2.39726 F6000
G1 X48.947 Y124.050 E4.67478
G1 X48.947 Y75.950 E5.87204
G1 X140.372 Y75.950 E8.14769
G1 X140.947 Y75.450 F8400.000
G1 X140.947 Y124.550 E9.36984 F6000
G1 X48.447 Y124.550 E11.67225
G1 X48.447 Y75.450 E12.89440
G1 X140.872 Y75.450 E15.19495
G1 X141.447 Y74.950 F8400.000
G1 X141.447 Y125.050 E16.44199 F6000
G1 X47.947 Y125.050 E18.76929
G1 X47.947 Y74.950 E20.01633
G1 X141.372 Y74.950 E22.34177
G1 X141.197 Y75.383 F8400.000
G1 F900.000 E21.14177
G92 E0
G1 X140.082 Y123.620 F8400.000
G1 E1.20000 F900.000
G1 X140.017 Y123.686 E1.20302 F6000
G1 X139.090 Y123.686 E1.23322
G1 X140.082 Y122.694 E1.27895
G1 X140.082 Y121.768 E1.30915
G1 X138.164 Y123.686 E1.39759
G1 X137.238 Y123.686 E1.42779
G1 X140.082 Y120.841 E1.55894
G1 X140.082 Y119.915 E1.58914
G1 X136.312 Y123.686 E1.76300
G1 X135.385 Y123.686 E1.79320
G1 X140.082 Y118.989 E2.00977
G1 X140.082 Y118.063 E2.03997
G1 X134.459 Y123.686 E2.29925
G1 X133.533 Y123.686 E2.32945
G1 X140.082 Y117.136 E2.63144
G1 X140.082 Y116.210 E2.66164
G1 X132.607 Y123.686 E3.00634
G1 X131.680 Y123.686 E3.03654
G1 X140.082 Y115.284 E3.42395
G1 X140.082 Y114.358 E3.45415
G1 X130.754 Y123.686 E3.88427
G1 X129.828 Y123.686 E3.91447
G1 X140.082 Y113.431 E4.38729
G1 X140.082 Y112.505 E4.41749
G1 X128.902 Y123.686 E4.93303
G1 X127.975 Y123.686 E4.96323
G1 X140.082 Y111.579 E5.52148
G1 X140.082 Y110.653 E5.55168
G1 X127.049 Y123.686 E6.15264
G1 X126.123 Y123.686 E6.18284
G1 X140.082 Y109.726 E6.82651
G1 X140.082 Y108.800 E6.85671
G1 X125.197 Y123.686 E7.54308
G1 X124.270 Y123.686 E7.57328
G1 X140.082 Y107.874 E8.30237
G1 X140.082 Y106.948 E8.33257
G1 X123.344 Y123.686 E9.10437
G1 X122.418 Y123.686 E9.13457
G1 X140.082 Y106.021 E9.94908
G1 X140.082 Y105.095 E9.97928
G1 X121.492 Y123.686 E10.83649
G1 X120.565 Y123.686 E10.86669
G1 X140.082 Y104.169 E11.76662
G1 X140.082 Y103.243 E11.79682
G1 X119.639 Y123.686 E12.73946
G1 X118.713 Y123.686 E12.76966
G1 X140.082 Y102.316 E13.75500
G1 X140.082 Y101.390 E13.78520
G1 X117.787 Y123.686 E14.81326
G1 X116.860 Y123.686 E14.84346
G1 X140.082 Y100.464 E15.91422
G1 X140.082 Y99.538 E15.94442
G1 X115.934 Y123.686 E17.05790
G1 X115.008 Y123.686 E17.08810
G1 X140.082 Y98.611 E18.24429
G1 X140.082 Y97.685 E18.27449
G1 X114.082 Y123.686 E19.47338
G1 X113.155 Y123.686 E19.50358
G1 X140.082 Y96.759 E20.74519
G1 X140.082 Y95.833 E20.77539
G1 X112.229 Y123.686 E22.05970
G1 X111.303 Y123.686 E22.08990
G1 X140.082 Y94.906 E23.41693
G1 X140.082 Y93.980 E23.44713
G1 X110.377 Y123.686 E24.81686
G1 X109.450 Y123.686 E24.84706
G1 X140.082 Y93.054 E26.25951
G1 X140.082 Y92.128 E26.28971
G1 X108.524 Y123.686 E27.74486
G1 X107.598 Y123.686 E27.77506
G1 X140.082 Y91.201 E29.27293
G1 X140.082 Y90.275 E29.30313
G1 X106.672 Y123.686 E30.84370
G1 X105.745 Y123.686 E30.87390
G1 X140.082 Y89.349 E32.45718
G1 X140.082 Y88.423 E32.48738
G1 X104.819 Y123.686 E34.11338
G1 X103.893 Y123.686 E34.14358
G1 X140.082 Y87.496 E35.81228
G1 X140.082 Y86.570 E35.84248
G1 X102.967 Y123.686 E37.55389
G1 X102.040 Y123.686 E37.58409
G1 X140.082 Y85.644 E39.33822
G1 X140.082 Y84.718 E39.36842
G1 X101.114 Y123.686 E41.16525
G1 X100.188 Y123.686 E41.19545
G1 X140.082 Y83.791 E43.03499
G1 X140.082 Y82.865 E43.06519
G1 X99.262 Y123.686 E44.94745
G1 X98.335 Y123.686 E44.97765
G1 X140.082 Y81.939 E46.90261
G1 X140.082 Y81.013 E46.93281
G1 X97.409 Y123.686 E48.90048
G1 X96.483 Y123.686 E48.93068
G1 X140.082 Y80.086 E50.94106
G1 X140.082 Y79.160 E50.97126
G1 X95.557 Y123.686 E53.02435
G1 X94.630 Y123.686 E53.05456
G1 X140.082 Y78.234 E55.15036
G1 X140.082 Y77.308 E55.18056
G1 X93.704 Y123.686 E57.31907
G1 X92.778 Y123.686 E57.34927
G1 X140.082 Y76.381 E59.53049
G1 X139.223 Y76.314 E59.55860
G1 X91.852 Y123.686 E61.74290
G1 X90.925 Y123.686 E61.77310
G1 X138.296 Y76.314 E63.95740
G1 X137.370 Y76.314 E63.98760
G1 X89.999 Y123.686 E66.17190
G1 X89.073 Y123.686 E66.20210
G1 X136.444 Y76.314 E68.38640
G1 X135.518 Y76.314 E68.41660
G1 X88.147 Y123.686 E70.60091
G1 X87.220 Y123.686 E70.63111
G1 X134.591 Y76.314 E72.81541
G1 X133.665 Y76.314 E72.84561
G1 X86.294 Y123.686 E75.02991
G1 X85.368 Y123.686 E75.06011
G1 X132.739 Y76.314 E77.24441
G1 X131.813 Y76.314 E77.27461
G1 X84.442 Y123.686 E79.45891
G1 X83.515 Y123.686 E79.48912
G1 X130.886 Y76.314 E81.67342
G1 X129.960 Y76.314 E81.70362
G1 X82.589 Y123.686 E83.88792
G1 X81.663 Y123.686 E83.91812
G1 X129.034 Y76.314 E86.10242
G1 X128.108 Y76.314 E86.13262
G1 X80.737 Y123.686 E88.31692
G1 X79.810 Y123.686 E88.34712
G1 X127.181 Y76.314 E90.53143
G1 X126.255 Y76.314 E90.56163
G1 X78.884 Y123.686 E92.74593
G1 X77.958 Y123.686 E92.77613
G1 X125.329 Y76.314 E94.96043
G1 X124.403 Y76.314 E94.99063
G1 X77.032 Y123.686 E97.17493
G1 X76.105 Y123.686 E97.20513
G1 X123.476 Y76.314 E99.38943
G1 X122.550 Y76.314 E99.41963
G1 X75.179 Y123.686 E101.60394
G1 X74.253 Y123.686 E101.63414
G1 X121.624 Y76.314 E103.81844
G1 X120.698 Y76.314 E103.84864
G1 X73.327 Y123.686 E106.03294
G1 X72.400 Y123.686 E106.06314
G1 X119.771 Y76.314 E108.24744
G1 X118.845 Y76.314 E108.27764
G1 X71.474 Y123.686 E110.46194
G1 X70.548 Y123.686 E110.49214
G1 X117.919 Y76.314 E112.67645
G1 X116.993 Y76.314 E112.70665
G1 X69.622 Y123.686 E114.89095
G1 X68.695 Y123.686 E114.92115
G1 X116.066 Y76.314 E117.10545
G1 X115.140 Y76.314 E117.13565
G1 X67.769 Y123.686 E119.31995
G1 X66.843 Y123.686 E119.35015
G1 X114.214 Y76.314 E121.53446
G1 X113.288 Y76.314 E121.56466
G1 X65.917 Y123.686 E123.74896
G1 X64.990 Y123.686 E123.77916
G1 X112.361 Y76.314 E125.96346
G1 X111.435 Y76.314 E125.99366
G1 X64.064 Y123.686 E128.17796
